symbols/web/backspace/materialsymbolsoutlined/backspace_wght300grad200fill1_24px.svg

<svg xmlns="http://www.w3.org/2000/svg" height="24" width="24"><path d="m11.275 16.15 2.65-2.65 2.65 2.65 1.5-1.5-2.65-2.65 2.65-2.65-1.5-1.5-2.65 2.65-2.65-2.65-1.5 1.5 2.65 2.65-2.65 2.65ZM2.675 12 7.2 5.6q.3-.425.738-.637.437-.213.937-.213h9.975q1.05 0 1.763.7.712.7.712 1.75v9.6q0 1.05-.712 1.75-.713.7-1.763.7H8.875q-.5 0-.937-.238-.438-.237-.738-.612Z"/></svg>

<svg xmlns="http://www.w3.org/2000/svg" height="24" width="24"><path d="M11.275 16.15 13.925 13.5 16.575 16.15 18.075 14.65 15.425 12 18.075 9.35 16.575 7.85 13.925 10.5 11.275 7.85 9.775 9.35 12.425 12 9.775 14.65ZM2.675 12 7.2 5.6Q7.5 5.175 7.938 4.963Q8.375 4.75 8.875 4.75H18.85Q19.9 4.75 20.613 5.45Q21.325 6.15 21.325 7.2V16.8Q21.325 17.85 20.613 18.55Q19.9 19.25 18.85 19.25H8.875Q8.375 19.25 7.938 19.012Q7.5 18.775 7.2 18.4Z"/></svg>
